X:0604
T:Marche des Marseillois
M:C
L:1/8
Q:1/2=72
I: ||
Z:Jack Campin * www.campin.me.uk * 2009
K:D
 A/A/A| d2 d2  e2 e2  |   a2 f2  z  \
ddc   | B2 g4     ec  |   d2 d>d d2 \
 d>e  | f2 f>f f2(gf) |   fe f2  z2
 ef   | g2 g>g g2(a>g)|{g}f2 f>f f2 \
 aa   | a2 fd  a2 fd  |   A2 A>A A2 \
 A>A  | e4     g2 ec  |   d2 d2 ^c4|
        B2 B>B d2 cd  |   e2 e>e e2 \
 ze   |=f3f    efgf   |   e2 e>e e2 \
=fe   | d2 d2  d2 ed  |   dc c4
 za   | a4     ae=fd  |   e2 e>e e2 \
 za   | a4     ae=fd  |   e2 e>e e2 \
 zA   | d2 d>d d2 d2  |   f8       |
        g4     a2 b2  |   e2 e>e e2 \
 z(b  | a4)    affe   |   d4     z2 \
 A2   | d6        d2  |   f8|
        g4     a2 b2  |   e6        \
 z(b  | a4)    afge   |   d2 d>d d2|]

